X: 5271
T: Brook Lodge, The
R: jig
M: 6/8
K: Dmajor
A|dcd AFA|BGE CDE|DFA dfa|ged cBc|
dcd AFA|BGE CDE|DFA dAF|GEC D2:|
A|dcd ecA|fef gec|afd ged|ced cBc|
dcd AFA|BGE CDE|DFA dAF|GEC D2:|

